src/assets/images/home.svg

<?xml version="1.0"?>
<svg xmlns="http://www.w3.org/2000/svg" xmlns:xlink="http://www.w3.org/1999/xlink" viewBox="0 0 512 512" width="512" height="512"><linearGradient id="a" gradientUnits="userSpaceOnUse" x1="256.002" x2="256.002" y1="31.616" y2="489.508"><stop offset="0" stop-color="#00efd1"/><stop offset="1" stop-color="#00acea"/></linearGradient><linearGradient id="b" x1="256.012" x2="256.012" xlink:href="#a" y1="31.616" y2="489.508"/><path d="m484.382 240.683-85.647-73.083a10.016 10.016 0 0 0 .265-1.581v-95.562a10.619 10.619 0 0 0 -10.255-10.457h-47.782c-5.523 0-9.963 4.934-9.963 10.457v39.569l-68.5-58.35a10.012 10.012 0 0 0 -12.979 0l-221.897 189.006a10 10 0 1 0 12.965 15.226l215.411-183.483 77.088 65.687 46.07 39.192 92.254 78.6a10 10 0 0 0 12.971-15.224zm-105.382-160.683v70.7l-28-23.635v-47.065z" fill="url(#a)"/><path d="m440.327 260.854-28.127-23.991-149.706-127.832a10 10 0 0 0 -12.988 0l-149.706 127.829-28.127 23.994a10 10 0 0 0 -1.119 14.1 9.8 9.8 0 0 0 13.934 1.119l12.512-10.814v187.453a10.534 10.534 0 0 0 10.328 10.288h297.344a10.534 10.534 0 0 0 10.328-10.288v-187.453l12.512 10.812a9.751 9.751 0 0 0 6.4 2.391 9.9 9.9 0 0 0 7.572-3.51 10 10 0 0 0 -1.157-14.098zm-144.327 182.146h-80v-108h80zm20 0v-117.706c0-5.523-4.058-10.294-9.581-10.294h-100.838c-5.523 0-9.581 4.771-9.581 10.294v117.706h-79v-194.8l139-118.41 139 118.41v194.8z" fill="url(#b)"/></svg>

<svg xmlns="http://www.w3.org/2000/svg" xmlns:xlink="http://www.w3.org/1999/xlink" width="512" height="512"><linearGradient id="a" gradientUnits="userSpaceOnUse" x1="256.002" x2="256.002" y1="31.616" y2="489.508"><stop offset="0" stop-color="#00efd1"/><stop offset="1" stop-color="#00acea"/></linearGradient><linearGradient id="b" x1="256.012" x2="256.012" xlink:href="#a" y1="31.616" y2="489.508"/><path d="M484.382 240.683L398.735 167.6a10.016 10.016 0 00.265-1.581V70.457A10.619 10.619 0 00388.745 60h-47.782C335.44 60 331 64.934 331 70.457v39.569l-68.5-58.35a10.012 10.012 0 00-12.979 0L27.624 240.682a10 10 0 1012.965 15.226L256 72.425l77.088 65.687 46.07 39.192 92.254 78.6a10 10 0 0012.971-15.224zM379 80v70.7l-28-23.635V80z" fill="url(#a)"/><path d="M440.327 260.854L412.2 236.863 262.494 109.031a10 10 0 00-12.988 0L99.8 236.86l-28.127 23.994a10 10 0 00-1.119 14.1 9.8 9.8 0 0013.934 1.119L97 265.259v187.453A10.534 10.534 0 00107.328 463h297.344A10.534 10.534 0 00415 452.712V265.259l12.512 10.812a9.751 9.751 0 006.4 2.391 9.9 9.9 0 007.572-3.51 10 10 0 00-1.157-14.098zM296 443h-80V335h80zm20 0V325.294c0-5.523-4.058-10.294-9.581-10.294H205.581c-5.523 0-9.581 4.771-9.581 10.294V443h-79V248.2l139-118.41L395 248.2V443z" fill="url(#b)"/></svg>
